X:240
T:Country Abigail. (p)1686.PLFD.240
M:6/4
L:1/4
Q:3/4=90
S:Playford, Dancing Master,7th Ed.,1686
O:England
H:1686.
Z:Chris Partington.
K:G
g|dgBA2G|BdBg2a|b>abg>fe|a>gaf2g|
d2BA2G|B>cdg>ag|f2ee2d|d3-d2:|
|:a|f>edB>gf|g2ab2a|g>agf>ed|e>feB2c|
d>edc2B|A3-A2G|ABGF2F|EAGF2c|
B>ABA2G|G3-G2"^8th Ed on,- may be repeat bars"a|baga2g|g3-g2:|
